X: 58
T:Dawns Hywel
T:Hywel's Dance
M:2/4
L:1/8
Q:220
S:Cadw Twmpath Collection
R:Polka
A:Wales
Z:brian_martin12345@yahoo.com
K:G
BG BG|c/B/c/A/ d2|BG BG|A/G/A/F/G2:||
F/G/A GB|A/B/c Bd|F/G/A GB|A/B/c/A/G2|
F/G/A GB|A/B/c B/c/d|G/A/B/G/ A/B/c/A/|B/G/A/F/G2||
